X:1
T:Title
%%score { ( 1 4 ) | ( 2 3 ) }
L:1/8
Q:1/4=92
M:4/4
K:G
V:1 treble nm="Grand Piano"
V:4 treble 
V:2 bass 
V:3 bass 
V:1
 [B,D]2 [B,D]2 EF[G,DG]A | B B2 _B =B G2 B | d2 ed BA G2 | [FA]6 [CD]2 | [B,D]2 [B,D]2 EF[G,DG]A | %5
w: Charles~H.~Gabriel,~Jr. * * * * *|||||
 B B2 _B =B G2 B | A2 dB ^cd e2 |[M:3/4] [Fd]6 |[M:1/4] [Fd]2 |[M:4/4] d2 cB B2 AG | %10
w: |||||
 [DGB]6 [B,=FA]2 | [EG]2 [^DF][EG] [EA] [EG]2 [G,CE] | [B,D]6 D2 | G2 FG [FA]2 [DG][FA] | %14
w: ||||
 B2 Bc d2 [Ge]2 | [Gd]2 [DGB][B,G] [DGB][DGB] [CFA]2 | [B,DG]6 z2 |] %17
w: |||
V:2
 z4 [C,C]2 z2 | [G,D] [G,D]2 [G,^C] [G,D] [G,B,]2[K:treble] [G,D] | %2
 [G,B,G]2 [G,CG][G,B,G] [G,DG][K:bass][G,CD] [G,B,D]2 | [D,D]6 [D,F,]2 | z4 [C,C]2 z2 | %5
 [G,D] [G,D]2 [G,^C] [G,D] [G,B,]2[K:treble] [G,DG] | [A,DF]2 [A,DF][A,DF] [A,EG][A,B,G] [A,^CG]2 | %7
[M:3/4][K:bass] [D,D]6 |[M:1/4] [D,C]2 | %9
[M:4/4][K:treble] [G,B,G]2 [G,EG][G,DG] [G,DG]2 [G,CD][K:bass][G,B,D] | G,G,,B,,D, G,2 G,2 | %11
 [C,C]2 [C,C][C,C] [C,C] [C,C]2 C, | G,,G,,B,,D, G,2 [G,B,]2 | %13
 [E,B,E]2 [E,B,E][E,B,E] [D,D]2 [D,B,][D,D] | [G,DG]2 [G,DG][G,A,G] [G,B,G]2[K:bass] [C,C]2 | %15
 [D,B,]2 D,D, D,D, D,2 | G,6 z2 |] %17
V:3
 [G,,G,]2 [G,,G,]2 G,A,B,,[D,F,D] | x7[K:treble] x | x5[K:bass] x3 | x8 | %4
 [G,,G,]2 [G,,G,]2 G,A,B,,[D,F,D] | x7[K:treble] x | x8 |[M:3/4][K:bass] x6 |[M:1/4] x2 | %9
[M:4/4][K:treble] x7[K:bass] x | x8 | x8 | x8 | x8 | x6[K:bass] x2 | x8 | x8 |] %17
V:4
 x8 | x8 | x8 | x8 | x8 | x8 | x8 |[M:3/4] x6 |[M:1/4] x2 |[M:4/4] x8 | x8 | x8 | G,4 z4 | x8 | %14
 x8 | x8 | x8 |] %17

